images/kingFoundationPlaceholder.svg

<svg xmlns="http://www.w3.org/2000/svg" width="179" height="250" viewBox="0 0 179 250">
    <path fill-opacity=".204" d="M166.138 0C173.241 0 179 5.643 179 12.605v224.79c0 6.962-5.759 12.605-12.862 12.605H12.862C5.759 250 0 244.357 0 237.395V12.605C0 5.643 5.759 0 12.862 0zm0 6H12.862C9.046 6 6 8.985 6 12.605v224.79c0 3.62 3.046 6.605 6.862 6.605h153.276c3.816 0 6.862-2.985 6.862-6.605V12.605C173 8.985 169.954 6 166.138 6"/>
    <path fill-opacity=".203" d="m93.769 84.582 1.959.17q6.025.51 8.501.51 1.922 0 7.393-.51 1.441-.113 2.291-.17v5.098h-.702q-4.361 0-9.943 8.158l-.037.056-15.228 22.376 16.374 26.228q.776 1.246 2.181 3.568 6.32 10.367 9.684 10.367.443 0 .665-.028.222-.029.407-.085l-.037 5.098q-.739-.057-2.255-.227-4.842-.453-6.579-.453-1.035 0-4.842.34-2.329.227-3.696.34.037-.17.055-.312.019-.141.019-.481 0-3.682-12.198-23.169-6.061-9.63-9.684-15.578l13.639-22.036.518-.906q5.507-8.95 5.507-10.48 0-1.473-.739-2.124-.739-.652-2.44-.652h-.813zm-31.713 0q3.955.34 6.801.51t4.546.17q1.626 0 4.158-.142 2.532-.141 6.894-.425v4.985h-.74q-3.4 0-4.509 2.493t-1.109 13.708v38.294q0 11.33 1.109 13.794t4.325 2.464q.184 0 .646-.057.463-.056.721-.056v5.098q-1.146-.057-3.289-.227-6.21-.453-8.428-.453-1.848 0-4.731.17t-6.764.51v-5.098q.259.056.555.085.295.028.85.028 2.994 0 4.047-2.946 1.053-2.945 1.053-14.105v-5.835q0-2.719-.018-4.107-.019-1.387-.055-2.69v-12.406q0-3.002.036-7.619.037-4.617.037-6.316 0-9.574-1.053-12.208t-4.047-2.634q-.111 0-.481.057-.369.056-.554.056z"/>
</svg>

<?xml version="1.0" encoding="UTF-8"?>
<!DOCTYPE svg PUBLIC "-//W3C//DTD SVG 1.1//EN" "http://www.w3.org/Graphics/SVG/1.1/DTD/svg11.dtd">
<svg version="1.1" xmlns="http://www.w3.org/2000/svg" xmlns:xlink="http://www.w3.org/1999/xlink" x="0" y="0" width="179" height="250" viewBox="0, 0, 179, 250">
  <g id="King" transform="translate(-0, -0)">
    <path d="M166.138,0 C173.241,0 179,5.643 179,12.605 L179,237.395 C179,244.357 173.241,250 166.138,250 L12.862,250 C5.759,250 0,244.357 0,237.395 L0,12.605 C0,5.643 5.759,0 12.862,0 L166.138,0 z M166.138,6 L12.862,6 C9.046,6 6,8.985 6,12.605 L6,237.395 C6,241.015 9.046,244 12.862,244 L166.138,244 C169.954,244 173,241.015 173,237.395 L173,12.605 C173,8.985 169.954,6 166.138,6 z" fill="#000000" fill-opacity="0.204"/>
    <path d="M93.769,84.582 Q94.434,84.639 95.728,84.752 Q101.753,85.262 104.229,85.262 Q106.151,85.262 111.622,84.752 Q113.063,84.639 113.913,84.582 L113.913,89.68 L113.211,89.68 Q108.85,89.68 103.268,97.838 L103.231,97.894 L88.003,120.27 L104.377,146.498 Q105.153,147.744 106.558,150.066 Q112.878,160.433 116.242,160.433 Q116.685,160.433 116.907,160.405 Q117.129,160.376 117.314,160.32 L117.277,165.418 Q116.538,165.361 115.022,165.191 Q110.18,164.738 108.443,164.738 Q107.408,164.738 103.601,165.078 Q101.272,165.305 99.905,165.418 Q99.942,165.248 99.96,165.106 Q99.979,164.965 99.979,164.625 Q99.979,160.943 87.781,141.456 Q81.72,131.826 78.097,125.878 L91.736,103.842 L92.254,102.936 Q97.761,93.986 97.761,92.456 Q97.761,90.983 97.022,90.332 Q96.283,89.68 94.582,89.68 L93.769,89.68 z M62.056,84.582 Q66.011,84.922 68.857,85.092 Q71.703,85.262 73.403,85.262 Q75.029,85.262 77.561,85.12 Q80.093,84.979 84.455,84.695 L84.455,89.68 L83.715,89.68 Q80.315,89.68 79.206,92.173 Q78.097,94.665 78.097,105.881 L78.097,144.175 Q78.097,155.505 79.206,157.969 Q80.315,160.433 83.531,160.433 Q83.715,160.433 84.177,160.376 Q84.64,160.32 84.898,160.32 L84.898,165.418 Q83.752,165.361 81.609,165.191 Q75.399,164.738 73.181,164.738 Q71.333,164.738 68.45,164.908 Q65.567,165.078 61.686,165.418 L61.686,160.32 Q61.945,160.376 62.241,160.405 Q62.536,160.433 63.091,160.433 Q66.085,160.433 67.138,157.487 Q68.191,154.542 68.191,143.382 L68.191,137.547 Q68.191,134.828 68.173,133.44 Q68.154,132.053 68.118,130.75 L68.118,118.344 Q68.118,115.342 68.154,110.725 Q68.191,106.108 68.191,104.409 Q68.191,94.835 67.138,92.201 Q66.085,89.567 63.091,89.567 Q62.98,89.567 62.61,89.624 Q62.241,89.68 62.056,89.68 z" fill="#000000" fill-opacity="0.203"/>
  </g>
</svg>
